X:14
T:La Belle Catherine
Z:Jack Campin  *  May 2000  *  http://www.campin.me.uk/
N:The last beat of bar 5 in second strain is [E2F2]
N:in the original file, but I don't believe it.
M:2/4
L:1/16
V:1
V:2
K:D
V:1
d4 {e}fede|f2d2 d2c2|B2e2 efed|c2A2 A2c2|d4 {e}fede|f2d2 d2c2|B2e2 dcBA|d4    d4:|
V:2
F4 {G}AGFG|A2F2 F4  |G4   GAGF|E2E2 E2E2|F4 {G}AGFG|A2F2 F2A2|G2G2 E4  |F4    F4:|
%
V:1
F2A2  A2G2|F2A2 A2G2|F2A2 efed|c2A2 A2G2|FGAB  A2G2|F2A2 A2Bc|d3e  gfed|def^f g4:|
V:2
D2F2  F2D2|D2F2 F2D2|F2A2 GAGF|E2E2 E2E2|DEFG  F2D2|D2F2 F2GA|d3c  B3d |d3^f  c4:|

